X:1
T:Title
%%score { 1 | 2 }
L:1/8
M:4/4
K:Eb
V:1 treble nm="Grand Piano"
V:2 bass 
V:1
 z4 z2[Q:1/4=100] B2 | E3 E [DF]2 G2 | F3 F G2 A2 | B3 c B2 [Ge]2 | %4
 [_Gd]2 [D=Ac]2 [D=GB]2 [=EBc]2 | [FBd]4 [E=Ac]4 |[M:3/4] [DFB]6 |[M:1/4] B2 | %8
[M:4/4] [Bf]3 [Be] [Ad]2 [CAc]2 | [FAB]3 [Ac] [GB]2 G2 | c3 B A2 G2 | F2 A2 c2 e2 | G4 [DF]4 | %13
[M:3/4] [B,E]6 |] %14
V:2
 z4 z2 [B,,B,]2 | [E,G,B,]3 [C,G,] [B,,B,]2 [E,B,E]2 | [B,D]3 [A,B,D] [G,B,E]2 [F,B,D]2 | %3
 [G,B,E]3 [A,E] [G,B,E]2 [C,B,]2 | [D,=A,]2 _G,2 =G,2 G,2 | F,4 F,4 |[M:3/4] B,6 |[M:1/4] B,2 | %8
[M:4/4] [A,D]3 [G,E] [F,B,]2 E,2 | D,3 [D,B,] [E,B,]2 [E,B,E]2 | [A,E]3 [G,C=E] [F,CF]2 [G,CE]2 | %11
 [A,C]2 [F,CF]2 [A,CF]2 [=A,CF]2 | [B,E]4 [B,,A,]4 |[M:3/4] [E,G,]6 |] %14

